X:1
T:The Old Rugged Cross
T:The Old Rugged Cross
C:George Bennard 1913
Z:All Rights Reserved
L:1/8
Q:1/4=90
M:3/4
K:Bb
V:1 treble nm="Voice"
%%MIDI program 54
V:1
 z4 DE |"Bb" F3 =E G2 | F4 FF |"Eb" G3 ^F A2 | G4"C" G2 |"F7" A3 G F2 | E2 F2 E2 |"Bb" D6- | %8
w: on a|hill far a|way stood an|old rug ged|cross the|em blem of|suf fering and|shame|
 D4 DE | F3 E G2 | F4 FF |"Eb" G3 ^F A2 | G4"C" GG |"F7" A3 G F2 | e2 d2 c2 |"Bb" B6- | B4 AB | %17
w: _ and I|love that old|cross where the|dear est and|best for a|world of lost|sin ners was|slain|_ so I'll|
"F7" c3 c c2 | c2 B2 A2 |"Bb" B6- | B4 BA |"Eb" G3 G G2 | B2 A2 G2 |"Bb" F6- | F4 FB | d3 d d2 | %26
w: cher ish the|old rug ged|cross|_ 'til my|tro phies at|last I lay|down|_ I will|cling to the|
 d2 e2 d2 |"Eb" G6- | G4 ee |"Bb/F" d3 c B2 |"F7" F2 A2 c2 |"Bb" B6- | B4 DE |"Bb" F3 =E G2 | %34
w: old rug ged|cross|_ and ex|change it some|day for a|crown|_ Oh that|old rug ged|
 F4 FF |"Eb" G3 ^F A2 | G4"C" GG |"F7" A3 G F2 | E2 F2 E2 |"Bb" D6- | D4 DE | F3 E G2 | F4 FF | %43
w: cross so des|pised by the|world has a|won derous a|trac tion for|me|_ for the|dear Lamb of|God left His|
"Eb" G3 ^F A2 | G4 G2 |"F7" A3 G F2 | e2 d2 c2 |"Bb" B6 | B4 AB |"F7" c3 c c2 | c2 B2 A2 | %51
w: glo ry a|bove to|par don and|sanc ti fy|me|_ so I'll|cher ish the|old rug ged|
"Bb" B6- | B4 BA |"Eb" G3 G G2 | B2 A2 G2 |"Bb" F6- | F4 FB | d3 d d2 | d2 e2 d2 |"Eb" G6- | %60
w: cross|_ 'til my|tro phies at|last I lay|down|_ I will|cling to the|old rug ged|cross|
 G4 ee |"Bb/F" d3 c B2 |"F7" F2 A2 c2 |"Bb" B6- | B4 DE |"Bb" F3 =E G2 | F4 FF |"Eb" G3 ^F A2 | %68
w: _ and ex|change it some|day for a|crown|_ to the|old rug ged|cross I will|ev er be|
 G4"C" G2 |"F7" A3 G F2 | E2 F2 E2 |"Bb" D6- | D4 DE | F3 E G2 | F4 FF |"Eb" G3 ^F A2 | G4"C" GG | %77
w: true It's|shame and re|proach glad ly|bear|_ then He'll|call me some|day to my|home far a|way where His|
"F7" A3 G F2 | e2 d2 c2 |"Bb" B6 | B4 AB |"F7" c3 c c2 | c2 B2 A2 |"Bb" B6- | B4 BA |"Eb" G3 G G2 | %86
w: glo ry for|ev er I'll|share.|_ so I'll|cher ish the|old rug ged|cross|_ 'til my|tro phies at|
 B2 A2 G2 |"Bb" F6- | F4 FB | d3 d d2 | d2 e2 d2 |"Eb" G6- | G4 ee |"Bb/F" d3 c B2 |"F7" F2 A2 c2 | %95
w: last I lay|down|_ I will|cling to the|old rug ged|cross|_ and ex|change it some|day for a|
"Bb" B6- | B6 |] %97
w: crown|_|

